X: 5
T: Another Jig Will Do
Z: Aaron Bergen
S: https://thesession.org/tunes/276#setting48626
R: slip jig
M: 9/8
L: 1/8
K: Dmaj
|:"A"ABA A2G F2G|"G"ABA AGF ~G3|"A"ABA A2G F2G|"D"A2d d2c d3:|
"D"A2g f2d e2c|"G"A2B =c2d c2c|"D"A2g f2d e2c|"G"A2d d2c d3|
"D"A2g f2d e2c|"G"A2B =c2d c2 c|"A"dBA A2G F2G|"D"A2d d2c d3|

